X:571
T:Reel 571
M:4/4
K:Dmin
L:1/8
AG|FDCD A,G,G,2|A,CD^C DEFG||AAGE FGAG|FDFE DGAG:||2AFGE FAEC|A,DD^C D2|FG|Add^c d2d=c|AGFA GECE|Add^c ded=c|GAcE D2FG|Addc defd|cAAB c2cB|Addc A=BcA|GDCE D2|
